X:4179
T:Dinky's
M:C
L:1/8
K:A Mixolydian
fed|ceBe ABcd|efed cAAf|gBB2 gBaB|gBB2 gfed|!
ceBe ABcd|efed cAAf|gagf efed|ceBe A:|!
ef^g|aAA2 aAbA|aAA2 agef|gBB2 gBaB|gBB2 gfe^g|!
aAA2 aAbA|aAA2 agef|gagf efed|ceBe Aef^g|!
aAA2 aAbA|aAA2 agef|gBB2 gBaB|gBB2 gfe^g|!
aAA2 gAA2|fAA2 eAA2|gagf efed|ceBe A:|!


